svgs/thin/magnifying-glass-dollar.svg

<svg xmlns="http://www.w3.org/2000/svg" viewBox="0 0 512 512"><!--! Font Awesome Pro 6.0.0-alpha3 by @fontawesome - https://fontawesome.com License - https://fontawesome.com/license (Commercial License) --><path d="M509.7 498.3l-149.2-149.2C394.8 312.1 416 262.6 416 208C416 93.13 322.9 0 208 0S0 93.13 0 208S93.13 416 208 416c54.55 0 104.1-21.17 141.2-55.54l149.2 149.2C499.9 511.2 501.9 512 504 512s4.094-.7813 5.656-2.344C512.8 506.5 512.8 501.5 509.7 498.3zM208 400c-105.9 0-192-86.13-192-192s86.13-192 192-192s192 86.13 192 192S313.9 400 208 400zM210 200.3L202.7 198.2c-30.89-8.625-45.88-16.78-42.13-37.41c3.969-21.94 33.28-27.5 60.53-23.53C228.1 138.3 236.5 140.5 247.5 144.1c4.172 1.375 8.703-.875 10.09-5.094c1.391-4.188-.8906-8.719-5.094-10.09C240.6 124.1 231.3 122.6 223.5 121.5c-2.566-.3789-4.943-.4453-7.422-.6797V104c0-4.406-3.578-8-8-8s-8 3.594-8 8v16.31C169.1 121.5 149 135 144.8 157.9c-7.047 38.75 30.89 49.38 53.56 55.72l7.406 2.031c36.78 10 53.66 17.16 49.59 39.5C251.5 277.1 222.2 282.8 194.8 278.7C183.8 277.1 171 272.8 159.8 268.9L154.6 267.1c-4.219-1.531-8.719 .7813-10.16 5C143 276.3 145.3 280.8 149.4 282.2L154.6 284c11.92 4.094 25.42 8.75 37.94 10.53c2.629 .3906 4.982 .3477 7.516 .5859V312c0 4.406 3.578 8 8 8s8-3.594 8-8V295.5c29.97-1.262 50.94-14.6 55.11-37.48C278.3 218.8 240.4 208.5 210 200.3z"/></svg>

<svg xmlns="http://www.w3.org/2000/svg" viewBox="0 0 512 512"><!-- Font Awesome Pro 6.0.0-alpha2 by @fontawesome - https://fontawesome.com License - https://fontawesome.com/license (Commercial License) --><path d="M509.656 498.344L360.465 349.152C394.828 312.055 416 262.555 416 208C416 93.125 322.875 0 208 0S0 93.125 0 208S93.125 416 208 416C262.555 416 312.055 394.828 349.152 360.465L498.344 509.656C499.906 511.219 501.938 512 504 512S508.094 511.219 509.656 509.656C512.781 506.531 512.781 501.469 509.656 498.344ZM208 400C102.133 400 16 313.867 16 208S102.133 16 208 16S400 102.133 400 208S313.867 400 208 400ZM210.016 200.25L202.719 198.219C171.828 189.594 156.844 181.437 160.594 160.812C164.562 138.875 193.875 133.312 221.125 137.281C228.109 138.312 236.484 140.469 247.5 144.094C251.672 145.469 256.203 143.219 257.594 139C258.984 134.812 256.703 130.281 252.5 128.906C240.578 124.969 231.344 122.625 223.469 121.469C220.902 121.09 218.525 121.023 216.047 120.789V104C216.047 99.594 212.469 96 208.047 96S200.047 99.594 200.047 104V120.312C169.961 121.539 149.025 135.004 144.844 157.938C137.797 196.688 175.734 207.313 198.406 213.656L205.812 215.688C242.594 225.688 259.469 232.844 255.406 255.188C251.453 277.125 222.172 282.75 194.844 278.719C183.781 277.125 171.047 272.75 159.812 268.875L154.578 267.094C150.359 265.562 145.859 267.875 144.422 272.094C143 276.281 145.25 280.812 149.422 282.219L154.594 284C166.516 288.094 180.016 292.75 192.531 294.531C195.16 294.922 197.514 294.879 200.047 295.117V312C200.047 316.406 203.625 320 208.047 320S216.047 316.406 216.047 312V295.547C246.02 294.285 266.99 280.945 271.156 258.062C278.281 218.812 240.438 208.5 210.016 200.25Z"/></svg>
